app/images/icons/speed.svg

<svg width="24" height="24" viewBox="0 0 24 24" fill="none" xmlns="http://www.w3.org/2000/svg">
<path d="M12 0C14.25 0.03125 16.2656 0.578125 18.0469 1.64062C19.8594 2.70312 21.2969 4.14062 22.3594 5.95312C23.4219 7.73438 23.9688 9.75 24 12C23.9688 14.25 23.4219 16.2656 22.3594 18.0469C21.2969 19.8594 19.8594 21.2969 18.0469 22.3594C16.2656 23.4219 14.25 23.9688 12 24C9.75 23.9688 7.73438 23.4219 5.95312 22.3594C4.14062 21.2969 2.70312 19.8594 1.64062 18.0469C0.578125 16.2656 0.03125 14.25 0 12C0 10.3125 0.328125 8.73438 0.984375 7.26562C1.60938 5.79688 2.48438 4.51562 3.60938 3.42188C3.92188 3.14062 4.28125 3 4.6875 3C5.0625 3 5.40625 3.15625 5.71875 3.46875C6 3.78125 6.14062 4.125 6.14062 4.5C6.14062 4.90625 6 5.26562 5.71875 5.57812C3.96875 7.26562 3.0625 9.40625 3 12C3.0625 14.5625 3.9375 16.6875 5.625 18.375C7.3125 20.0625 9.4375 20.9375 12 21C14.5625 20.9375 16.6875 20.0625 18.375 18.375C20.0625 16.6875 20.9375 14.5625 21 12C20.9688 9.71875 20.25 7.76562 18.8438 6.14062C17.4688 4.54688 15.6875 3.54688 13.5 3.14062V4.5C13.5 4.9375 13.3594 5.29688 13.0781 5.57812C12.7969 5.85938 12.4375 6 12 6C11.5625 6 11.2031 5.85938 10.9219 5.57812C10.6406 5.29688 10.5 4.9375 10.5 4.5V1.5C10.5 1.0625 10.6406 0.703125 10.9219 0.421875C11.2031 0.140625 11.5625 0 12 0ZM9.04688 7.45312L12.7969 11.2031C13.2344 11.7344 13.2344 12.2656 12.7969 12.7969C12.2656 13.2344 11.7344 13.2344 11.2031 12.7969L7.45312 9.04688C7.01562 8.51562 7.01562 7.98438 7.45312 7.45312C7.98438 7.01562 8.51562 7.01562 9.04688 7.45312Z" fill="#1D53C0"/>
</svg>

<svg width="24" height="24" fill="none" xmlns="http://www.w3.org/2000/svg"><path d="M12 0c2.25.031 4.266.578 6.047 1.64a11.888 11.888 0 014.312 4.313C23.422 7.734 23.97 9.75 24 12c-.031 2.25-.578 4.266-1.64 6.047a11.888 11.888 0 01-4.313 4.312C16.266 23.422 14.25 23.97 12 24c-2.25-.031-4.266-.578-6.047-1.64a11.888 11.888 0 01-4.312-4.313C.578 16.266.03 14.25 0 12c0-1.688.328-3.266.984-4.734.625-1.47 1.5-2.75 2.625-3.844A1.564 1.564 0 014.688 3c.375 0 .718.156 1.03.469.282.312.423.656.423 1.031 0 .406-.141.766-.422 1.078C3.969 7.266 3.062 9.406 3 12c.063 2.563.938 4.688 2.625 6.375C7.313 20.063 9.438 20.938 12 21c2.563-.063 4.688-.938 6.375-2.625C20.063 16.687 20.938 14.562 21 12c-.031-2.281-.75-4.234-2.156-5.86-1.375-1.593-3.157-2.593-5.344-3V4.5c0 .438-.14.797-.422 1.078C12.797 5.86 12.438 6 12 6c-.438 0-.797-.14-1.078-.422-.281-.281-.422-.64-.422-1.078v-3c0-.438.14-.797.422-1.078C11.203.14 11.562 0 12 0zM9.047 7.453l3.75 3.75c.437.531.437 1.063 0 1.594-.531.437-1.063.437-1.594 0l-3.75-3.75c-.437-.531-.437-1.063 0-1.594.531-.437 1.063-.437 1.594 0z" fill="#1D53C0"/></svg>
